assets/img/icons/duotone-icons/Food/Miso-soup.svg

<?xml version="1.0" encoding="UTF-8"?>
<svg width="24px" height="24px" viewBox="0 0 24 24" version="1.1" xmlns="http://www.w3.org/2000/svg" xmlns:xlink="http://www.w3.org/1999/xlink">
    <!-- Generator: Sketch 52.2 (67145) - http://www.bohemiancoding.com/sketch -->
    <title>Stockholm-icons / Food / Miso-soup</title>
    <desc>Created with Sketch.</desc>
    <g id="Stockholm-icons-/-Food-/-Miso-soup" stroke="none" stroke-width="1" fill="none" fill-rule="evenodd">
        <rect id="bound" x="0" y="0" width="24" height="24"></rect>
        <path d="M2,14 L22,14 L22,14 C22,18.9705627 17.9705627,23 13,23 L11,23 C6.02943725,23 2,18.9705627 2,14 Z" id="Combined-Shape" fill="#335EEA"></path>
        <path d="M16.7233675,1.41763641 C17.1846056,1.68393238 17.3426375,2.27371529 17.0763415,2.73495343 C17.070507,2.74505905 17.0644896,2.75505793 17.0582922,2.76494514 L10.5379559,13.1673758 C10.3897629,13.4038004 10.08104,13.4805452 9.83939289,13.3410302 C9.59774579,13.2015152 9.50984729,12.8957809 9.64050046,12.6492297 L15.3891015,1.80123745 C15.6384827,1.33063867 16.2221417,1.15130634 16.6927405,1.40068748 C16.7030512,1.40615136 16.7132619,1.41180193 16.7233675,1.41763641 Z M21.8768598,4.21665558 C22.2332333,4.61244851 22.2012776,5.22219993 21.8054847,5.57857348 C21.796813,5.58638154 21.7880002,5.59403156 21.7790508,5.60151976 L12.3633147,13.4799245 C12.1493155,13.6589835 11.8319871,13.6365715 11.6452796,13.4292118 C11.458572,13.221852 11.4694527,12.9039193 11.6698998,12.7098092 L20.4893582,4.16917098 C20.8719568,3.79866796 21.4824663,3.80847334 21.8529693,4.19107192 C21.8610869,4.19945456 21.8690517,4.20798385 21.8768598,4.21665558 Z" id="Combined-Shape" fill="#335EEA" opacity="0.3"></path>
    </g>
</svg>

<svg width="24" height="24" viewBox="0 0 24 24" xmlns="http://www.w3.org/2000/svg"><g fill="none" fill-rule="evenodd"><path d="M0 0h24v24H0z"/><path d="M2 14h20a9 9 0 01-9 9h-2a9 9 0 01-9-9z" fill="#335EEA"/><path d="M16.723 1.418a.964.964 0 01.335 1.347l-6.52 10.402a.518.518 0 01-.897-.518l5.748-10.848a.964.964 0 011.334-.383zm5.154 2.799a.964.964 0 01-.098 1.385l-9.416 7.878a.518.518 0 01-.693-.77l8.82-8.54a.964.964 0 011.387.047z" fill="#335EEA" opacity=".3"/></g></svg>
